X:295
T: GESTERN ABEND GIENG ICH AUS
N: E0167
O: Europa, Mitteleuropa, Deutschland
R: erzaehlendes Volks - Lied, Sage, Tier - Maerchen
M: 2/4
L: 1/8
K: G
 | DGGG | FAA2 |
BBcA | AGG2 |
dBBG | GEG2 |
cBAG | FED2 |
DGGG | FAA2 |
BBcA | AGG2

@@@ Tune index: 3945
